X: 96
T:Ai vis lou loup
R:Bourre 3
M:3/8
L:1/8
K:C
fef|d2f|ec2|fef|dec|d3:|\
|:ABc|d2c/B/|Ad2|ABc|ded|c3:|
